ncols 8
nrows 8
xllcorner 500000
yllcorner 5000000
cellsize 250
NODATA_value -9999
-2.030000 -2.030000 -0.980000 -0.980000 -2.030000 -2.030000 -0.980000 -0.980000
-0.980000 -0.980000 -2.030000 -2.030000 -0.980000 -0.980000 -2.030000 -2.030000
-2.030000 -2.030000 -0.980000 -0.980000 -2.030000 -2.030000 -0.980000 -0.980000
-0.980000 -0.980000 -2.030000 -2.030000 -0.980000 -0.980000 -2.030000 -2.030000
-2.030000 -2.030000 -0.980000 -0.980000 -2.030000 -2.030000 -0.980000 -0.980000
-0.980000 -0.980000 -2.030000 -2.030000 -0.980000 -0.980000 -2.030000 -2.030000
-2.030000 -2.030000 -0.980000 -0.980000 -2.030000 -2.030000 -0.980000 -0.980000
-0.980000 -0.980000 -2.030000 -2.030000 -0.980000 -0.980000 -2.030000 -2.030000
