ncols 8
nrows 8
xllcorner 500000
yllcorner 5000000
cellsize 250
NODATA_value -9999
7.550000 7.550000 1.110000 1.110000 7.550000 7.550000 1.110000 1.110000
1.110000 1.110000 7.550000 7.550000 1.110000 1.110000 7.550000 7.550000
7.550000 7.550000 1.110000 1.110000 7.550000 7.550000 1.110000 1.110000
1.110000 1.110000 7.550000 7.550000 1.110000 1.110000 7.550000 7.550000
7.550000 7.550000 1.110000 1.110000 7.550000 7.550000 1.110000 1.110000
1.110000 1.110000 7.550000 7.550000 1.110000 1.110000 7.550000 7.550000
7.550000 7.550000 1.110000 1.110000 7.550000 7.550000 1.110000 1.110000
1.110000 1.110000 7.550000 7.550000 1.110000 1.110000 7.550000 7.550000
