ncols 8
nrows 8
xllcorner 500000
yllcorner 5000000
cellsize 250
NODATA_value -9999
2.100000 2.100000 6.800000 6.800000 2.100000 2.100000 6.800000 6.800000
6.800000 6.800000 2.100000 2.100000 6.800000 6.800000 2.100000 2.100000
2.100000 2.100000 6.800000 6.800000 2.100000 2.100000 6.800000 6.800000
6.800000 6.800000 2.100000 2.100000 6.800000 6.800000 2.100000 2.100000
2.100000 2.100000 6.800000 6.800000 2.100000 2.100000 6.800000 6.800000
6.800000 6.800000 2.100000 2.100000 6.800000 6.800000 2.100000 2.100000
2.100000 2.100000 6.800000 6.800000 2.100000 2.100000 6.800000 6.800000
6.800000 6.800000 2.100000 2.100000 6.800000 6.800000 2.100000 2.100000
