ncols 8
nrows 8
xllcorner 500000
yllcorner 5000000
cellsize 250
NODATA_value -9999
6.690000 6.690000 3.320000 3.320000 6.690000 6.690000 3.320000 3.320000
3.320000 3.320000 6.690000 6.690000 3.320000 3.320000 6.690000 6.690000
6.690000 6.690000 3.320000 3.320000 6.690000 6.690000 3.320000 3.320000
3.320000 3.320000 6.690000 6.690000 3.320000 3.320000 6.690000 6.690000
6.690000 6.690000 3.320000 3.320000 6.690000 6.690000 3.320000 3.320000
3.320000 3.320000 6.690000 6.690000 3.320000 3.320000 6.690000 6.690000
6.690000 6.690000 3.320000 3.320000 6.690000 6.690000 3.320000 3.320000
3.320000 3.320000 6.690000 6.690000 3.320000 3.320000 6.690000 6.690000
