ncols 8
nrows 8
xllcorner 500000
yllcorner 5000000
cellsize 250
NODATA_value -9999
4.410000 4.410000 1.400000 1.400000 4.410000 4.410000 1.400000 1.400000
1.400000 1.400000 4.410000 4.410000 1.400000 1.400000 4.410000 4.410000
4.410000 4.410000 1.400000 1.400000 4.410000 4.410000 1.400000 1.400000
1.400000 1.400000 4.410000 4.410000 1.400000 1.400000 4.410000 4.410000
4.410000 4.410000 1.400000 1.400000 4.410000 4.410000 1.400000 1.400000
1.400000 1.400000 4.410000 4.410000 1.400000 1.400000 4.410000 4.410000
4.410000 4.410000 1.400000 1.400000 4.410000 4.410000 1.400000 1.400000
1.400000 1.400000 4.410000 4.410000 1.400000 1.400000 4.410000 4.410000
