ncols 8
nrows 8
xllcorner 500000
yllcorner 5000000
cellsize 250
NODATA_value -9999
100.900000 100.800000 100.700000 100.600000 100.400000 100.300000 100.200000 100.100000
100.900000 100.800000 100.700000 100.600000 100.400000 100.300000 100.200000 100.100000
100.900000 100.800000 100.700000 100.600000 100.400000 100.300000 100.200000 100.100000
100.900000 100.800000 100.700000 100.600000 100.400000 100.300000 100.200000 100.100000
100.900000 100.800000 100.700000 100.600000 100.400000 100.300000 100.200000 100.100000
100.900000 100.800000 100.700000 100.600000 100.400000 100.300000 100.200000 100.100000
100.900000 100.800000 100.700000 100.600000 100.400000 100.300000 100.200000 100.100000
100.900000 100.800000 100.700000 100.600000 100.400000 100.300000 100.200000 100.100000
