ncols 8
nrows 8
xllcorner 500000
yllcorner 5000000
cellsize 250
NODATA_value -9999
137.100000 137.200000 137.300000 137.400000 137.600000 137.700000 137.800000 137.900000
137.100000 137.200000 137.300000 137.400000 137.600000 137.700000 137.800000 137.900000
137.100000 137.200000 137.300000 137.400000 137.600000 137.700000 137.800000 137.900000
137.100000 137.200000 137.300000 137.400000 137.600000 137.700000 137.800000 137.900000
137.100000 137.200000 137.300000 137.400000 137.600000 137.700000 137.800000 137.900000
137.100000 137.200000 137.300000 137.400000 137.600000 137.700000 137.800000 137.900000
137.100000 137.200000 137.300000 137.400000 137.600000 137.700000 137.800000 137.900000
137.100000 137.200000 137.300000 137.400000 137.600000 137.700000 137.800000 137.900000
