ncols 8
nrows 8
xllcorner 500000
yllcorner 5000000
cellsize 250
NODATA_value -9999
8.070000 8.070000 9.070000 9.070000 8.070000 8.070000 9.070000 9.070000
9.070000 9.070000 8.070000 8.070000 9.070000 9.070000 8.070000 8.070000
8.070000 8.070000 9.070000 9.070000 8.070000 8.070000 9.070000 9.070000
9.070000 9.070000 8.070000 8.070000 9.070000 9.070000 8.070000 8.070000
8.070000 8.070000 9.070000 9.070000 8.070000 8.070000 9.070000 9.070000
9.070000 9.070000 8.070000 8.070000 9.070000 9.070000 8.070000 8.070000
8.070000 8.070000 9.070000 9.070000 8.070000 8.070000 9.070000 9.070000
9.070000 9.070000 8.070000 8.070000 9.070000 9.070000 8.070000 8.070000
