ncols 8
nrows 8
xllcorner 500000
yllcorner 5000000
cellsize 250
NODATA_value -9999
8.350000 8.350000 9.590000 9.590000 8.350000 8.350000 9.590000 9.590000
9.590000 9.590000 8.350000 8.350000 9.590000 9.590000 8.350000 8.350000
8.350000 8.350000 9.590000 9.590000 8.350000 8.350000 9.590000 9.590000
9.590000 9.590000 8.350000 8.350000 9.590000 9.590000 8.350000 8.350000
8.350000 8.350000 9.590000 9.590000 8.350000 8.350000 9.590000 9.590000
9.590000 9.590000 8.350000 8.350000 9.590000 9.590000 8.350000 8.350000
8.350000 8.350000 9.590000 9.590000 8.350000 8.350000 9.590000 9.590000
9.590000 9.590000 8.350000 8.350000 9.590000 9.590000 8.350000 8.350000
