ncols 8
nrows 8
xllcorner 500000
yllcorner 5000000
cellsize 250
NODATA_value -9999
52000.000000 53000.000000 54000.000000 55000.000000 56000.000000 52000.000000 53000.000000 54000.000000
53000.000000 62500.000000 62500.000000 62500.000000 62500.000000 62500.000000 62500.000000 55000.000000
54000.000000 62500.000000 62500.000000 62500.000000 62500.000000 62500.000000 62500.000000 56000.000000
55000.000000 62500.000000 62500.000000 62500.000000 62500.000000 62500.000000 62500.000000 52000.000000
56000.000000 62500.000000 62500.000000 62500.000000 62500.000000 62500.000000 62500.000000 53000.000000
52000.000000 62500.000000 62500.000000 62500.000000 62500.000000 62500.000000 62500.000000 54000.000000
53000.000000 62500.000000 62500.000000 62500.000000 62500.000000 62500.000000 62500.000000 55000.000000
54000.000000 55000.000000 56000.000000 52000.000000 53000.000000 54000.000000 55000.000000 56000.000000
