ncols 8
nrows 8
xllcorner 500000
yllcorner 5000000
cellsize 250
NODATA_value -9999
0.492000 0.492000 0.524000 0.524000 0.492000 0.492000 0.524000 0.524000
0.524000 0.524000 0.492000 0.492000 0.524000 0.524000 0.492000 0.492000
0.492000 0.492000 0.524000 0.524000 0.492000 0.492000 0.524000 0.524000
0.524000 0.524000 0.492000 0.492000 0.524000 0.524000 0.492000 0.492000
0.492000 0.492000 0.524000 0.524000 0.492000 0.492000 0.524000 0.524000
0.524000 0.524000 0.492000 0.492000 0.524000 0.524000 0.492000 0.492000
0.492000 0.492000 0.524000 0.524000 0.492000 0.492000 0.524000 0.524000
0.524000 0.524000 0.492000 0.492000 0.524000 0.524000 0.492000 0.492000
