ncols 8
nrows 8
xllcorner 500000
yllcorner 5000000
cellsize 250
NODATA_value -9999
0.197000 0.197000 0.257000 0.257000 0.197000 0.197000 0.257000 0.257000
0.257000 0.257000 0.197000 0.197000 0.257000 0.257000 0.197000 0.197000
0.197000 0.197000 0.257000 0.257000 0.197000 0.197000 0.257000 0.257000
0.257000 0.257000 0.197000 0.197000 0.257000 0.257000 0.197000 0.197000
0.197000 0.197000 0.257000 0.257000 0.197000 0.197000 0.257000 0.257000
0.257000 0.257000 0.197000 0.197000 0.257000 0.257000 0.197000 0.197000
0.197000 0.197000 0.257000 0.257000 0.197000 0.197000 0.257000 0.257000
0.257000 0.257000 0.197000 0.197000 0.257000 0.257000 0.197000 0.197000
