ncols 8
nrows 8
xllcorner 500000
yllcorner 5000000
cellsize 250
NODATA_value -9999
2.200000 2.070000 1.940000 1.810000 1.680000 1.550000 1.420000 1.290000
2.230000 2.100000 1.970000 1.840000 1.710000 1.580000 1.450000 1.320000
2.260000 2.130000 2.000000 1.870000 1.740000 1.610000 1.480000 1.350000
2.290000 2.160000 2.030000 1.900000 1.770000 1.640000 1.510000 1.380000
2.320000 2.190000 2.060000 1.930000 1.800000 1.670000 1.540000 1.410000
2.350000 2.220000 2.090000 1.960000 1.830000 1.700000 1.570000 1.440000
2.380000 2.250000 2.120000 1.990000 1.860000 1.730000 1.600000 1.470000
2.410000 2.280000 2.150000 2.020000 1.890000 1.760000 1.630000 1.500000
